icon/lg/parsehub.svg

<?xml version="1.0" encoding="UTF-8" standalone="no"?>
<svg viewBox="0 0 256 256" version="1.1" xmlns="http://www.w3.org/2000/svg" xmlns:xlink="http://www.w3.org/1999/xlink" preserveAspectRatio="xMidYMid" height="1em" width="1em">
  <g>
    <path d="M64.0457143,126.72 C64.0457143,90.0205714 93.9044571,60.16 130.605714,60.16 C167.305143,60.16 197.165714,90.0205714 197.165714,126.72 C197.165714,163.421257 167.305143,193.28 130.605714,193.28 C93.9044571,193.28 64.0457143,163.421257 64.0457143,126.72 L64.0457143,126.72 Z" fill="#21BBD1"/>
    <path d="M256,20.48 C256,9.216 246.120229,0 234.856229,0 L130.605714,0 C59.9149714,0 0,56.0274286 0,126.72 L0,256 L31.0857143,256 L31.0857143,126.72 C31.0857143,73.0806857 75.8473143,29.44 129.486629,29.44 C183.125943,29.44 227.324343,73.0788571 227.324343,126.72 C227.324343,180.359314 183.0272,224 129.387886,224 C103.652571,224 76.8,213.9392 62.1714286,197.568 L62.1714286,256 L130.605714,256 C201.298286,256 256,197.412571 256,126.72 L256,20.48 L256,20.48 Z" fill="#20222D"/>
  </g>
</svg>

<svg width="256" height="256" xmlns="http://www.w3.org/2000/svg" preserveAspectRatio="xMidYMid"><path d="M64.046 126.72c0-36.7 29.858-66.56 66.56-66.56 36.7 0 66.56 29.86 66.56 66.56 0 36.701-29.86 66.56-66.56 66.56-36.702 0-66.56-29.859-66.56-66.56Z" fill="#21BBD1"/><path d="M256 20.48C256 9.216 246.12 0 234.856 0h-104.25C59.915 0 0 56.027 0 126.72V256h31.086V126.72c0-53.64 44.761-97.28 98.4-97.28 53.64 0 97.838 43.639 97.838 97.28 0 53.64-44.297 97.28-97.936 97.28-25.735 0-52.588-10.06-67.217-26.432V256h68.435C201.298 256 256 197.413 256 126.72V20.48Z" fill="#20222D"/></svg>
